hosted/assets/icon/widgets/dark-mode/wind-circle.svg

<svg width="50" height="50" viewBox="0 0 50 50" fill="none" xmlns="http://www.w3.org/2000/svg">
<circle cx="25" cy="25" r="2" fill="#4A6BB7"/>
<path d="M25 2C12.3086 2 2 12.3086 2 25C2 37.6914 12.3086 48 25 48C37.6914 48 48 37.6914 48 25C48 12.3086 37.6914 2 25 2ZM25 4C36.6094 4 46 13.3906 46 25C46 36.6094 36.6094 46 25 46C13.3906 46 4 36.6094 4 25C4 13.3906 13.3906 4 25 4ZM25 8C24.4492 8 24 8.44922 24 9C24 9.55078 24.4492 10 25 10C25.5508 10 26 9.55078 26 9C26 8.44922 25.5508 8 25 8ZM18.875 9.21875C18.7461 9.21875 18.6289 9.22656 18.5 9.28125C17.9883 9.49219 17.7266 10.082 17.9375 10.5938C18.1484 11.1055 18.7383 11.3672 19.25 11.1562C19.7617 10.9453 20.0234 10.3555 19.8125 9.84375C19.6523 9.46094 19.2656 9.22266 18.875 9.21875ZM31.125 9.21875C30.7344 9.22266 30.3477 9.46094 30.1875 9.84375C29.9766 10.3555 30.2383 10.9453 30.75 11.1562C31.2617 11.3672 31.8203 11.1055 32.0312 10.5938C32.2422 10.082 32.0117 9.49219 31.5 9.28125C31.3711 9.22656 31.2539 9.21875 31.125 9.21875ZM13.6875 12.6875C13.4297 12.6875 13.1641 12.7734 12.9688 12.9688C12.5781 13.3594 12.5781 14.0156 12.9688 14.4062C13.3594 14.7969 14.0156 14.7969 14.4062 14.4062C14.7969 14.0156 14.7969 13.3594 14.4062 12.9688C14.2109 12.7734 13.9453 12.6875 13.6875 12.6875ZM36.3125 12.6875C36.0547 12.6875 35.7891 12.7734 35.5938 12.9688C35.2031 13.3594 35.2031 14.0156 35.5938 14.4062C35.9844 14.7969 36.6406 14.7969 37.0312 14.4062C37.4219 14.0156 37.4219 13.3594 37.0312 12.9688C36.8359 12.7734 36.5703 12.6875 36.3125 12.6875ZM34 16L29.0625 17.0312L30.3125 18.25L26.25 22.3125C25.8633 22.1328 25.4492 22 25 22C23.3555 22 22 23.3555 22 25C22 25.4609 22.125 25.8906 22.3125 26.2812L19.3125 29.2812C18.9531 29.1094 18.5469 29.0195 18.1562 29C17.918 28.9883 17.6719 29.0156 17.4375 29.0625C17.4062 29.0625 17.375 29.0625 17.3438 29.0625C16.8008 29.1914 16.4648 29.7383 16.5938 30.2812C16.7227 30.8242 17.2695 31.1602 17.8125 31.0312C18.0078 30.9922 18.2188 30.9922 18.4062 31.0625C18.5 31.3125 18.6914 31.5156 18.9375 31.625C19 31.8047 19.0039 32 18.9688 32.1875C18.8633 32.7305 19.2227 33.2539 19.7656 33.3594C20.3086 33.4648 20.832 33.1055 20.9375 32.5625C21.0586 31.9414 20.957 31.2969 20.6875 30.7188L23.7188 27.6875C24.1094 27.875 24.5391 28 25 28C26.6445 28 28 26.6445 28 25C28 24.5508 27.8672 24.1367 27.6875 23.75L31.75 19.6875L32.9688 20.9375L34 16ZM10.2188 17.875C9.82812 17.8789 9.44141 18.1172 9.28125 18.5C9.07031 19.0117 9.33203 19.6016 9.84375 19.8125C10.3555 20.0234 10.9453 19.7617 11.1562 19.25C11.3672 18.7383 11.1055 18.1484 10.5938 17.9375C10.4648 17.8828 10.3477 17.875 10.2188 17.875ZM39.7812 17.875C39.6523 17.875 39.5352 17.8828 39.4062 17.9375C38.8945 18.1484 38.6328 18.7383 38.8438 19.25C39.0547 19.7617 39.6445 20.0234 40.1562 19.8125C40.668 19.6016 40.9297 19.0117 40.7188 18.5C40.5586 18.1172 40.1719 17.8789 39.7812 17.875ZM9 24C8.44922 24 8 24.4492 8 25C8 25.5508 8.44922 26 9 26C9.55078 26 10 25.5508 10 25C10 24.4492 9.55078 24 9 24ZM25 24C25.2812 24 25.5391 24.1016 25.7188 24.2812C25.7305 24.293 25.7383 24.3008 25.75 24.3125C25.9102 24.4883 26 24.7344 26 25C26 25.5625 25.5625 26 25 26C24.4375 26 24 25.5625 24 25C24 24.4375 24.4375 24 25 24ZM41 24C40.4492 24 40 24.4492 40 25C40 25.5508 40.4492 26 41 26C41.5508 26 42 25.5508 42 25C42 24.4492 41.5508 24 41 24ZM10.2188 30.125C10.0898 30.125 9.97266 30.1328 9.84375 30.1875C9.33203 30.3984 9.07031 30.9883 9.28125 31.5C9.49219 32.0117 10.082 32.2422 10.5938 32.0312C11.1055 31.8203 11.3672 31.2617 11.1562 30.75C10.9961 30.3672 10.6094 30.1289 10.2188 30.125ZM39.7812 30.125C39.3906 30.1289 39.0039 30.3672 38.8438 30.75C38.6328 31.2617 38.8945 31.8203 39.4062 32.0312C39.918 32.2422 40.5078 32.0117 40.7188 31.5C40.9297 30.9883 40.668 30.3984 40.1562 30.1875C40.0273 30.1328 39.9102 30.125 39.7812 30.125ZM13.6875 35.3125C13.4297 35.3125 13.1641 35.3984 12.9688 35.5938C12.5781 35.9844 12.5781 36.6406 12.9688 37.0312C13.3594 37.4219 14.0156 37.4219 14.4062 37.0312C14.7969 36.6406 14.7969 35.9844 14.4062 35.5938C14.2109 35.3984 13.9453 35.3125 13.6875 35.3125ZM36.3125 35.3125C36.0547 35.3125 35.7891 35.3984 35.5938 35.5938C35.2031 35.9844 35.2031 36.6406 35.5938 37.0312C35.9844 37.4219 36.6406 37.4219 37.0312 37.0312C37.4219 36.6406 37.4219 35.9844 37.0312 35.5938C36.8359 35.3984 36.5703 35.3125 36.3125 35.3125ZM18.875 38.7812C18.4844 38.7852 18.1289 39.0234 17.9688 39.4062C17.7578 39.918 17.9883 40.5078 18.5 40.7188C19.0117 40.9297 19.6016 40.668 19.8125 40.1562C20.0234 39.6445 19.7617 39.0547 19.25 38.8438C19.1211 38.7891 19.0039 38.7812 18.875 38.7812ZM31.125 38.7812C30.9961 38.7812 30.8789 38.7891 30.75 38.8438C30.2383 39.0547 29.9766 39.6445 30.1875 40.1562C30.3984 40.668 30.9883 40.9297 31.5 40.7188C32.0117 40.5078 32.2734 39.918 32.0625 39.4062C31.9023 39.0234 31.5156 38.7852 31.125 38.7812Z" fill="white"/>
</svg>

<svg width="50" height="50" fill="none" xmlns="http://www.w3.org/2000/svg"><circle cx="25" cy="25" r="2" fill="#4A6BB7"/><path d="M25 2C12.309 2 2 12.309 2 25s10.309 23 23 23 23-10.309 23-23S37.691 2 25 2zm0 2c11.61 0 21 9.39 21 21s-9.39 21-21 21S4 36.61 4 25 13.39 4 25 4zm0 4c-.55 0-1 .45-1 1s.45 1 1 1 1-.45 1-1-.45-1-1-1zm-6.125 1.219a.903.903 0 00-.375.062 1.016 1.016 0 00-.563 1.313c.211.511.801.773 1.313.562.512-.21.773-.8.563-1.312a1.038 1.038 0 00-.938-.625zm12.25 0a1.04 1.04 0 00-.938.625c-.21.511.051 1.101.563 1.312.512.211 1.07-.05 1.281-.562A1 1 0 0031.5 9.28a.903.903 0 00-.375-.062zm-17.438 3.469c-.257 0-.523.085-.718.28a1.03 1.03 0 000 1.438c.39.39 1.047.39 1.437 0 .39-.39.39-1.047 0-1.437a1.008 1.008 0 00-.719-.281zm22.626 0c-.258 0-.524.085-.72.28a1.03 1.03 0 000 1.438 1.03 1.03 0 001.438 0c.39-.39.39-1.047 0-1.437a1.008 1.008 0 00-.718-.281zM34 16l-4.938 1.031 1.25 1.219-4.062 4.063c-.387-.18-.8-.313-1.25-.313-1.645 0-3 1.355-3 3 0 .46.125.89.313 1.281l-3 3A3.067 3.067 0 0018.155 29a2.966 2.966 0 00-.718.063h-.094a1.013 1.013 0 00.468 1.968 1.09 1.09 0 01.594.032c.094.25.285.453.532.562a1.1 1.1 0 01.03.563 1.002 1.002 0 001.97.374 3.011 3.011 0 00-.25-1.843l3.03-3.032a2.95 2.95 0 001.282.313c1.645 0 3-1.355 3-3 0-.45-.133-.863-.313-1.25l4.063-4.063 1.219 1.25L34 16zm-23.781 1.875c-.39.004-.778.242-.938.625-.21.512.051 1.102.563 1.313.511.21 1.101-.051 1.312-.563.211-.512-.05-1.102-.562-1.313a.903.903 0 00-.375-.062zm29.562 0a.903.903 0 00-.375.063c-.511.21-.773.8-.562 1.312.21.512.8.773 1.312.563.512-.211.774-.801.563-1.313a1.038 1.038 0 00-.938-.625zM9 24c-.55 0-1 .45-1 1s.45 1 1 1 1-.45 1-1-.45-1-1-1zm16 0a1.01 1.01 0 01.75.313c.16.175.25.421.25.687 0 .563-.438 1-1 1-.563 0-1-.438-1-1 0-.563.438-1 1-1zm16 0c-.55 0-1 .45-1 1s.45 1 1 1 1-.45 1-1-.45-1-1-1zm-30.781 6.125a.903.903 0 00-.375.063c-.512.21-.774.8-.563 1.312a1 1 0 001.313.531c.511-.21.773-.77.562-1.281a1.038 1.038 0 00-.937-.625zm29.562 0c-.39.004-.777.242-.937.625-.211.512.05 1.07.562 1.281a1 1 0 001.313-.531 1.016 1.016 0 00-.563-1.313.902.902 0 00-.375-.062zm-26.093 5.188c-.258 0-.524.085-.72.28a1.03 1.03 0 000 1.438 1.03 1.03 0 001.438 0c.39-.39.39-1.047 0-1.437a1.008 1.008 0 00-.719-.282zm22.624 0c-.257 0-.523.085-.718.28a1.03 1.03 0 000 1.438c.39.39 1.047.39 1.437 0 .39-.39.39-1.047 0-1.437a1.008 1.008 0 00-.718-.282zM18.875 38.78a.995.995 0 00-.906.625 1 1 0 00.531 1.313 1.016 1.016 0 001.313-.563c.21-.511-.051-1.101-.563-1.312a.903.903 0 00-.375-.063zm12.25 0a.903.903 0 00-.375.063c-.512.21-.773.8-.563 1.312.211.512.801.774 1.313.563.512-.211.773-.801.563-1.313a1.038 1.038 0 00-.938-.625z" fill="#fff"/></svg>
